X:1
T:The Sprig of Thyme
M:4/4
L:1/8
K:G
 D3/2- G/2| B2 B3/2- G/2 A2B-A| G6 B3/2 c/2| d2 e3/2- d/2 B2 d3/2- A/2|\
 A6| B3/2- c/2| d2 d2 G2B-d|c-Bc-A F2 D3/2 D/2| B2B-GA-B c3/2- A/2|\
 G6||

